X: 39
T: DA LERWICK LASSES
S: Lyn McCulloch, Sound Primary
R: reel
B: Haand me doon da fiddle, 1979
Z: 2012 John Chambers <jc:trillian.mit.edu>
N: Added missing start-repeat sign to 2nd part, at bar line to handle the different pickup notes.
M: C
L: 1/8
K: G
GA !segno!|\
vkBGG<G AFAc | B(GkG2) (vkg2d)uc | vBGG<G AFA(uc | BG)AF G2 :|
ef |: vg2g2 afa(ud | [f2d2])fg ka2af | kg2gf efe(u^c |1 eka)vaf gede :|2 eaaf gedc |]
%%begintext align
As far as we ken dis een cam fae Unst an I aye tocht it wis
wan o' da best o' da auld reels.  If du can git a real stop-go
effect ida second half o' him laek whit da auld fiddlers
did fir a dancing it fairly  pits a queef itil him.
%%endtext

%%sep 2 1 500
%%sep 1 1 500

